X:15358
T:Ships are sailing
R:Reel
O:Scotland
M:4/4
K:EDor
Beed BcdB|AD (3FED AD (3FED|\
EDEF GFGA|Beef gfed|\
Beed BcdB|AD (3FED AD (3FED|\
EDEF GFGA|Bee^d e2 ::\
ef|\
gfga bgeg|fefg afdf|gfga bgeg|fe^df e2ef|\
gfga bgeg|fefg afdf|g2bg f2af|e^def e2 :|


